X: 93
T:Trip to Sligo
R:Jig
Z:In O'Neill's as The Lark in the Morning.
E:10
M:6/8
L:1/8
Q:3/8=120
K:Em
D|E2e BGE|D2d AFD|E2e BGE|GFE e2f|
gfe dcB|ABG FED|EFG ABc|BGF E2:|
B|eBe gfe|dAd fed|eBe gfe|faf gfe|
faf gfe|dcB AFD|EFG ABc|BGF E2:|
